X:14043
T:Red Joak
B:Walsh
M:4/4
L:1/8
N:
K:G
ba| g3a g2 B2| dBde d2 ba| g3 a g2 B2|A4 A2 ba| g3 a g2 B2| dBde d2 ba|\
g2 e2 d2 B2| G4 G4:: e2| d2 F2 BcdB| d2 G2 g3 e| d2 G2 BcdB| A4 A2 e2|\
d2 G2 BcdB| d2 G2 g3 a| bage gedB|G4 G2:: D2| GABG BcdB| GABG  Bcde| \
d2 B2 cBAG| A4 A2 D2| GABG BcdB| GABG Bcde| d2 B2 dBAG G4 G2:|
